icons/bug-2-line.svg

<svg xmlns="http://www.w3.org/2000/svg" width="24" height="24" fill="none"><g clip-path="url(#a)"><g><path fill="#121212" d="M10.562 4.14799C11.5104 3.9498 12.4896 3.9498 13.438 4.14799L15.121 2.46399L16.536 3.87899L15.486 4.92899C16.7223 5.64078 17.7129 6.71187 18.326 7.99999H21V9.99999H18.93C18.976 10.327 19 10.66 19 11V12H21V14H19V15C19 15.34 18.976 15.673 18.93 16H21V18H18.326C17.7586 19.1976 16.8629 20.2096 15.7431 20.9182C14.6232 21.6268 13.3252 22.003 12 22.003C10.6748 22.003 9.37677 21.6268 8.25692 20.9182C7.13707 20.2096 6.24138 19.1976 5.674 18H3V16H5.07C5.023 15.6687 4.99961 15.3346 5 15V14H3V12H5V11C5 10.66 5.024 10.327 5.07 9.99999H3V7.99999H5.674C6.28697 6.7115 7.27751 5.64005 8.514 4.92799L7.464 3.87799L8.88 2.46499L10.563 4.14899L10.562 4.14799ZM12 5.99999C10.6739 5.99999 9.40215 6.52677 8.46447 7.46446C7.52678 8.40214 7 9.67391 7 11V15C7 16.3261 7.52678 17.5978 8.46447 18.5355C9.40215 19.4732 10.6739 20 12 20C13.3261 20 14.5979 19.4732 15.5355 18.5355C16.4732 17.5978 17 16.3261 17 15V11C17 9.67391 16.4732 8.40214 15.5355 7.46446C14.5979 6.52677 13.3261 5.99999 12 5.99999ZM9 14H15V16H9V14ZM9 9.99999H15V12H9V9.99999Z"/></g></g><defs><clipPath id="a"><rect width="24" height="24" fill="white"/></clipPath></defs></svg>

<svg width="24" height="24" fill="none" xmlns="http://www.w3.org/2000/svg"><g clip-path="url(#a)"><path d="M10.562 4.148a7.03 7.03 0 0 1 2.876 0l1.683-1.684 1.415 1.415-1.05 1.05A7.03 7.03 0 0 1 18.326 8H21v2h-2.07c.046.327.07.66.07 1v1h2v2h-2v1c0 .34-.024.673-.07 1H21v2h-2.674a7 7 0 0 1-12.652 0H3v-2h2.07A7.06 7.06 0 0 1 5 15v-1H3v-2h2v-1c0-.34.024-.673.07-1H3V8h2.674a7.03 7.03 0 0 1 2.84-3.072l-1.05-1.05L8.88 2.465l1.683 1.684-.001-.001ZM12 6a5 5 0 0 0-5 5v4a5 5 0 1 0 10 0v-4a5 5 0 0 0-5-5Zm-3 8h6v2H9v-2Zm0-4h6v2H9v-2Z" /></g><defs><clipPath id="a"><path fill="#fff" d="M0 0h24v24H0z"/></clipPath></defs></svg>
